svg/transport/auto_hold_fill.svg

<?xml version="1.0" encoding="UTF-8"?>
<svg width="24px" height="24px" viewBox="0 0 24 24" version="1.1" xmlns="http://www.w3.org/2000/svg" xmlns:xlink="http://www.w3.org/1999/xlink">
    <title>auto_hold_fill</title>
    <g id="页面-1" stroke="none" stroke-width="1" fill="none" fill-rule="evenodd">
        <g id="Transport" transform="translate(-288.000000, -144.000000)">
            <g id="auto_hold_fill" transform="translate(288.000000, 144.000000)">
                 <path d="M24,0 L24,24 L0,24 L0,0 L24,0 Z M12.5934901,23.257841 L12.5819402,23.2595131 L12.5108777,23.2950439 L12.4918791,23.2987469 L12.4918791,23.2987469 L12.4767152,23.2950439 L12.4056548,23.2595131 C12.3958229,23.2563662 12.3870493,23.2590235 12.3821421,23.2649074 L12.3780323,23.275831 L12.360941,23.7031097 L12.3658947,23.7234994 L12.3769048,23.7357139 L12.4804777,23.8096931 L12.4953491,23.8136134 L12.4953491,23.8136134 L12.5071152,23.8096931 L12.6106902,23.7357139 L12.6232938,23.7196733 L12.6232938,23.7196733 L12.6266527,23.7031097 L12.609561,23.275831 C12.6075724,23.2657013 12.6010112,23.2592993 12.5934901,23.257841 L12.5934901,23.257841 Z M12.8583906,23.1452862 L12.8445485,23.1473072 L12.6598443,23.2396597 L12.6498822,23.2499052 L12.6498822,23.2499052 L12.6471943,23.2611114 L12.6650943,23.6906389 L12.6699349,23.7034178 L12.6699349,23.7034178 L12.678386,23.7104931 L12.8793402,23.8032389 C12.8914285,23.8068999 12.9022333,23.8029875 12.9078286,23.7952264 L12.9118235,23.7811639 L12.8776777,23.1665331 C12.8752882,23.1545897 12.8674102,23.1470016 12.8583906,23.1452862 L12.8583906,23.1452862 Z M12.1430473,23.1473072 C12.1332178,23.1423925 12.1221763,23.1452606 12.1156365,23.1525954 L12.1099173,23.1665331 L12.0757714,23.7811639 C12.0751323,23.7926639 12.0828099,23.8018602 12.0926481,23.8045676 L12.108256,23.8032389 L12.3092106,23.7104931 L12.3186497,23.7024347 L12.3186497,23.7024347 L12.3225043,23.6906389 L12.340401,23.2611114 L12.337245,23.2485176 L12.337245,23.2485176 L12.3277531,23.2396597 L12.1430473,23.1473072 Z" id="MingCute" fill-rule="nonzero"></path>
                <path d="M12,4 C16.4183,4 20,7.58172 20,12 C20,16.4183 16.4183,20 12,20 C7.58172,20 4,16.4183 4,12 C4,7.58172 7.58172,4 12,4 Z M3.1997,5.39942 C3.53139,4.95783 4.15826,4.86874 4.59985,5.20043 C5.04143,5.53212 5.13052,6.15899 4.79883,6.60058 C3.66906,8.10467 3,9.97276 3,12 C3,14.0272 3.66906,15.8953 4.79883,17.3994 C5.13052,17.841 5.04143,18.4679 4.59985,18.7996 C4.15826,19.1313 3.53139,19.0422 3.1997,18.6006 C1.81871,16.762 1,14.4752 1,12 C1,9.52482 1.81871,7.23797 3.1997,5.39942 Z M19.4002,5.20043 C19.8417,4.86874 20.4686,4.95783 20.8003,5.39942 C22.1813,7.23797 23,9.52482 23,12 C23,14.4752 22.1813,16.762 20.8003,18.6006 C20.4686,19.0422 19.8417,19.1313 19.4002,18.7996 C18.9586,18.4679 18.8695,17.841 19.2012,17.3994 C20.3309,15.8953 21,14.0272 21,12 C21,9.97276 20.3309,8.10467 19.2012,6.60058 C18.8695,6.15899 18.9586,5.53212 19.4002,5.20043 Z M14,8 C13.48715,8 13.0644908,8.38604429 13.0067275,8.88337975 L13,9 L13,11 L11,11 L11,9 C11,8.44772 10.5523,8 10,8 C9.48716857,8 9.06449347,8.38604429 9.0067278,8.88337975 L9,9 L9,15 C9,15.5523 9.44772,16 10,16 C10.51285,16 10.9355092,15.613973 10.9932725,15.1166239 L11,15 L11,13 L13,13 L13,15 C13,15.5523 13.4477,16 14,16 C14.51285,16 14.9355092,15.613973 14.9932725,15.1166239 L15,15 L15,9 C15,8.44772 14.5523,8 14,8 Z" id="形状" fill="#09244B"></path>
            </g>
        </g>
    </g>
</svg>

<svg xmlns="http://www.w3.org/2000/svg" width="24" height="24"><g fill="none" fill-rule="evenodd"><path d="M24 0v24H0V0h24ZM12.593 23.258l-.011.002-.071.035-.02.004-.014-.004-.071-.035c-.01-.004-.019-.001-.024.005l-.004.01-.017.428.005.02.01.013.104.074.015.004.012-.004.104-.074.012-.016.004-.017-.017-.427c-.002-.01-.009-.017-.017-.018Zm.265-.113-.013.002-.185.093-.01.01-.003.011.018.43.005.012.008.007.201.093c.012.004.023 0 .029-.008l.004-.014-.034-.614c-.003-.012-.01-.02-.02-.022Zm-.715.002a.023.023 0 0 0-.027.006l-.006.014-.034.614c0 .012.007.02.017.024l.015-.002.201-.093.01-.008.004-.011.017-.43-.003-.012-.01-.01-.184-.092Z"/><path fill="#09244B" d="M12 4a8 8 0 1 1 0 16 8 8 0 0 1 0-16ZM3.2 5.4a1 1 0 1 1 1.599 1.2A8.956 8.956 0 0 0 3 12c0 2.027.67 3.895 1.799 5.4a1 1 0 0 1-1.6 1.2A10.956 10.956 0 0 1 1 12c0-2.475.819-4.762 2.2-6.6Zm16.2-.2a1 1 0 0 1 1.4.2A10.956 10.956 0 0 1 23 12c0 2.475-.819 4.762-2.2 6.6a1 1 0 1 1-1.599-1.2A8.956 8.956 0 0 0 21 12c0-2.027-.67-3.895-1.799-5.4a1 1 0 0 1 .2-1.4ZM14 8a1 1 0 0 0-.993.883L13 9v2h-2V9a1 1 0 0 0-1.993-.117L9 9v6a1 1 0 0 0 1.993.117L11 15v-2h2v2a1 1 0 0 0 1.993.117L15 15V9a1 1 0 0 0-1-1Z"/></g></svg>
